public/assets/img/moon.svg

<svg width="24" height="24" viewBox="0 0 24 24" fill="none" xmlns="http://www.w3.org/2000/svg">
<path fill-rule="evenodd" clip-rule="evenodd" d="M19.7852 15.5156C18.4961 18.4688 15.6602 20.3125 12.2852 20.3125C7.51953 20.3125 4.05078 16.8281 4.05078 12.0625C4.05078 8.74219 6.08984 5.67969 9.06641 4.47656C9.33203 4.375 9.53516 4.33594 9.66016 4.33594C10.1289 4.33594 10.4336 4.70312 10.4336 5.10156C10.4336 5.3125 10.3789 5.50781 10.2305 5.78125C9.94922 6.33594 9.76172 7.32812 9.76172 8.41406C9.76172 12.2891 12.2539 14.6875 16.2617 14.6875C17.1289 14.6875 18.0273 14.5312 18.5898 14.2891C18.8555 14.1641 19.043 14.125 19.2383 14.125C19.6211 14.125 19.9492 14.4141 19.9492 14.8594C19.9492 15.0156 19.9102 15.2422 19.7852 15.5156ZM5.81641 12.0312C5.81641 15.7969 8.56641 18.5469 12.3242 18.5469C14.3945 18.5469 16.3242 17.625 17.418 16.0625C16.9648 16.2188 16.4883 16.2812 15.9336 16.2812C11.082 16.2812 8.14453 13.3984 8.14453 8.65625C8.14453 7.99219 8.23828 7.39062 8.41016 6.83594C6.79297 8.00781 5.81641 10 5.81641 12.0312Z" fill="#9C42F5"/>
</svg>

<svg width="24" height="24" fill="none" xmlns="http://www.w3.org/2000/svg"><path fill-rule="evenodd" clip-rule="evenodd" d="M19.785 15.516c-1.289 2.953-4.125 4.796-7.5 4.796-4.765 0-8.234-3.484-8.234-8.25 0-3.32 2.039-6.382 5.015-7.585.266-.102.47-.141.594-.141.469 0 .774.367.774.766 0 .21-.055.406-.204.68-.28.554-.468 1.546-.468 2.632 0 3.875 2.492 6.274 6.5 6.274.867 0 1.765-.157 2.328-.399.265-.125.453-.164.648-.164.383 0 .711.29.711.734 0 .157-.039.383-.164.657ZM5.816 12.03c0 3.766 2.75 6.516 6.508 6.516 2.07 0 4-.922 5.094-2.485-.453.157-.93.22-1.484.22-4.852 0-7.79-2.884-7.79-7.626 0-.664.094-1.265.266-1.82C6.793 8.008 5.816 10 5.816 12.03Z" fill="#9C42F5"/></svg>
